apps/app.mento.org/public/tokens/USDm.svg

<svg width="220" height="220" viewBox="0 0 220 220" fill="none" xmlns="http://www.w3.org/2000/svg">
<path d="M110 220C170.751 220 220 170.751 220 110C220 49.2487 170.751 0 110 0C49.2487 0 0 49.2487 0 110C0 170.751 49.2487 220 110 220Z" fill="#510DC1"/>
<path d="M110 23C158.049 23 197 61.9512 197 110C197 158.049 158.049 197 110 197C61.9512 197 23 158.049 23 110C23 61.9512 61.9512 23 110 23Z" stroke="url(#paint0_linear_2057_331)" stroke-width="36"/>
<path d="M110 202C160.81 202 202 160.81 202 110C202 59.1898 160.81 18 110 18C59.1898 18 18 59.1898 18 110C18 160.81 59.1898 202 110 202Z" fill="#510DC1"/>
<path d="M105.259 174V159.846C81.9989 157.943 66.6003 146.371 66 125.553H86.0868C86.5442 137.934 94.8438 143.108 105.268 144.606V115.893C80.6553 111.398 68.8777 103.374 68.8777 86.2321C68.8777 70.9929 83.2281 60.1101 105.268 59.0167V45H116.741V59.1544C140.906 61.3327 152.532 73.8513 153.284 91.6735H133.655C133.055 81.7379 127.766 76.0296 116.741 74.3937V100.929C147.7 106.233 156 115.35 156 130.323C156 148.283 139.992 158.898 116.741 159.983V174H105.268H105.259ZM89.7078 85.6983C89.7078 91.6821 92.1281 95.3585 105.259 98.6216V73.9977C95.749 74.9533 89.7078 79.3013 89.7078 85.6983ZM116.741 145.02C127.766 144.064 135.16 139.303 135.16 131.141C135.16 125.157 131.987 121.618 116.741 118.08V145.02Z" fill="url(#paint1_linear_2057_331)"/>
<defs>
<linearGradient id="paint0_linear_2057_331" x1="110" y1="5" x2="110" y2="215" gradientUnits="userSpaceOnUse">
<stop offset="0.0480769" stop-color="#64FFB7"/>
<stop offset="1" stop-color="#00B25F"/>
</linearGradient>
<linearGradient id="paint1_linear_2057_331" x1="111" y1="45" x2="111" y2="174" gradientUnits="userSpaceOnUse">
<stop stop-color="#E2DBFF"/>
<stop offset="0.975962" stop-color="#FBFAFF"/>
</linearGradient>
</defs>
</svg>

<svg xmlns="http://www.w3.org/2000/svg" width="220" height="220" fill="none" viewBox="0 0 220 220"><path fill="#510dc1" d="M110 220c60.751 0 110-49.249 110-110S170.751 0 110 0 0 49.249 0 110s49.249 110 110 110"/><path stroke="url(#a)" stroke-width="36" d="M110 23c48.049 0 87 38.951 87 87s-38.951 87-87 87-87-38.951-87-87 38.951-87 87-87Z"/><path fill="#510dc1" d="M110 202c50.81 0 92-41.19 92-92s-41.19-92-92-92-92 41.19-92 92 41.19 92 92 92"/><path fill="url(#b)" d="M105.259 174v-14.154C81.999 157.943 66.6 146.371 66 125.553h20.087c.457 12.381 8.757 17.555 19.181 19.053v-28.713c-24.613-4.495-36.39-12.519-36.39-29.66 0-15.24 14.35-26.123 36.39-27.216V45h11.473v14.154c24.165 2.179 35.791 14.697 36.543 32.52h-19.629c-.6-9.936-5.889-15.644-16.914-17.28v26.535C147.7 106.233 156 115.35 156 130.323c0 17.96-16.008 28.575-39.259 29.66V174zM89.708 85.698c0 5.984 2.42 9.66 15.551 12.924V73.998c-9.51.955-15.551 5.303-15.551 11.7m27.033 59.322c11.025-.956 18.419-5.717 18.419-13.879 0-5.984-3.173-9.523-18.419-13.061z"/><defs><linearGradient id="a" x1="110" x2="110" y1="5" y2="215" gradientUnits="userSpaceOnUse"><stop offset=".048" stop-color="#64ffb7"/><stop offset="1" stop-color="#00b25f"/></linearGradient><linearGradient id="b" x1="111" x2="111" y1="45" y2="174" gradientUnits="userSpaceOnUse"><stop stop-color="#e2dbff"/><stop offset=".976" stop-color="#fbfaff"/></linearGradient></defs></svg>
